svg/router_wireless.svg

<svg xmlns="http://www.w3.org/2000/svg" viewBox="0 0 24 24"><path d="m20.2 5.9.8-.8C19.6 3.7 17.8 3 16 3s-3.6.7-5 2.1l.8.8C13 4.8 14.5 4.2 16 4.2s3 .6 4.2 1.7m-.9.8c-.9-.9-2.1-1.4-3.3-1.4s-2.4.5-3.3 1.4l.8.8c.7-.7 1.6-1 2.5-1s1.8.3 2.5 1zM19 13h-2V9h-2v4H5a2 2 0 0 0-2 2v4a2 2 0 0 0 2 2h14a2 2 0 0 0 2-2v-4a2 2 0 0 0-2-2M8 18H6v-2h2zm3.5 0h-2v-2h2zm3.5 0h-2v-2h2z"/></svg>

<?xml version="1.0" encoding="UTF-8"?><!DOCTYPE svg PUBLIC "-//W3C//DTD SVG 1.1//EN" "http://www.w3.org/Graphics/SVG/1.1/DTD/svg11.dtd"><svg xmlns="http://www.w3.org/2000/svg" xmlns:xlink="http://www.w3.org/1999/xlink" version="1.1" id="mdi-router-wireless" width="24" height="24" viewBox="0 0 24 24"><path d="M20.2,5.9L21,5.1C19.6,3.7 17.8,3 16,3C14.2,3 12.4,3.7 11,5.1L11.8,5.9C13,4.8 14.5,4.2 16,4.2C17.5,4.2 19,4.8 20.2,5.9M19.3,6.7C18.4,5.8 17.2,5.3 16,5.3C14.8,5.3 13.6,5.8 12.7,6.7L13.5,7.5C14.2,6.8 15.1,6.5 16,6.5C16.9,6.5 17.8,6.8 18.5,7.5L19.3,6.7M19,13H17V9H15V13H5A2,2 0 0,0 3,15V19A2,2 0 0,0 5,21H19A2,2 0 0,0 21,19V15A2,2 0 0,0 19,13M8,18H6V16H8V18M11.5,18H9.5V16H11.5V18M15,18H13V16H15V18Z" /></svg>
